X:32
T: DORT WO DER ALTE RHEIN MIT SEINEN WELLEN
N: B0037
O: Europa, Mitteleuropa, Deutschland
R: politisch, national, Vaterlands - Lied
M: 4/4
L: 1/16
K: Bb
F2d2c2 | B6B2c2B2A2G2 | F2D2F6
F2G2A2 | B6B2d2B2A2B2 | c8z2
F2c2B2 | A6G2^F2A2d3A | c2B2B6
G2A2B2 | c6AFC2B2A2G2 | F4z6
F2D2F2 | B4z4z2B2F2B2 | d4z8
d4 | d6d2c4d4 | e8z2
e2d2c2 | B6F2d4c4 | B8z2
F2D2F2 | B4z4z2B2F2B2 | d4z8
d4 | d6d2c4d4 | e8z2
e2d2c2 | B6F2d4c4 | B8z2

